lib/brands/logos/google-lens.svg

<svg xmlns="http://www.w3.org/2000/svg" fill="none" aria-hidden="true" viewBox="0 0 269 51"><g id="Google Lens"><g id="Group"><g id="Union"><path fill="#80868B" d="M69.2417 24.0984C69.2417 31.8919 75.7905 38.2349 83.6031 38.2349C87.7871 38.2349 90.9562 36.8562 93.4311 34.2998C95.9874 31.7483 96.7821 28.1388 96.7821 25.2665C96.7915 24.4639 96.7226 23.6622 96.5763 22.8729H83.5744V26.6643H92.8136C92.5407 28.8329 91.8131 30.4366 90.712 31.5377C89.3668 32.8781 87.2653 34.3621 83.5744 34.3621C82.2336 34.3584 80.9068 34.0888 79.6708 33.5689C78.4349 33.049 77.3143 32.2891 76.374 31.3333C75.4337 30.3774 74.6924 29.2445 74.1928 28.0002C73.6933 26.7558 73.4456 25.4248 73.464 24.0841C73.4462 22.7418 73.6952 21.4093 74.1965 20.1639C74.6978 18.9186 75.4414 17.7852 76.3842 16.8295C77.3269 15.8738 78.4501 15.1149 79.6885 14.5967C80.9269 14.0785 82.2559 13.8114 83.5983 13.8109C86.1926 13.777 88.6955 14.7678 90.5636 16.5683L93.2875 13.8444C92.0142 12.5826 90.5016 11.5879 88.8386 10.9187C87.1755 10.2495 85.3955 9.91938 83.6031 9.94766C75.7905 9.94766 69.2417 16.305 69.2417 24.0984Z"/><path fill="#80868B" fill-rule="evenodd" d="M115.899 32.8124C116.314 31.6333 116.481 30.3813 116.39 29.1345C116.481 27.8878 116.314 26.6358 115.899 25.4566C115.484 24.2775 114.83 23.1965 113.979 22.2811C113.128 21.3657 112.097 20.6357 110.951 20.1364C109.805 19.6372 108.569 19.3795 107.319 19.3795C106.069 19.3795 104.832 19.6372 103.686 20.1364C102.54 20.6357 101.509 21.3657 100.658 22.2811C99.8068 23.1965 99.1534 24.2775 98.7385 25.4566C98.3237 26.6358 98.1564 27.8878 98.247 29.1345C98.1564 30.3813 98.3237 31.6333 98.7385 32.8124C99.1534 33.9916 99.8068 35.0726 100.658 35.988C101.509 36.9033 102.54 37.6334 103.686 38.1326C104.832 38.6319 106.069 38.8895 107.319 38.8895C108.569 38.8895 109.805 38.6319 110.951 38.1326C112.097 37.6334 113.128 36.9033 113.979 35.988C114.83 35.0726 115.484 33.9916 115.899 32.8124ZM107.314 23.6198C110.057 23.6198 112.417 25.8601 112.417 29.1345C112.417 32.3706 110.052 34.6493 107.314 34.6493C104.576 34.6493 102.216 32.4089 102.216 29.1345C102.216 25.8601 104.571 23.6198 107.314 23.6198Z" clip-rule="evenodd"/><path fill="#80868B" fill-rule="evenodd" d="M136.018 29.1345C136.108 30.3813 135.941 31.6333 135.526 32.8124C135.111 33.9916 134.458 35.0726 133.606 35.988C132.755 36.9033 131.724 37.6334 130.578 38.1326C129.432 38.6319 128.196 38.8895 126.946 38.8895C125.696 38.8895 124.459 38.6319 123.313 38.1326C122.167 37.6334 121.137 36.9033 120.285 35.988C119.434 35.0726 118.781 33.9916 118.366 32.8124C117.951 31.6333 117.784 30.3813 117.874 29.1345C117.784 27.8878 117.951 26.6358 118.366 25.4566C118.781 24.2775 119.434 23.1965 120.285 22.2811C121.137 21.3657 122.167 20.6357 123.313 20.1364C124.459 19.6372 125.696 19.3795 126.946 19.3795C128.196 19.3795 129.432 19.6372 130.578 20.1364C131.724 20.6357 132.755 21.3657 133.606 22.2811C134.458 23.1965 135.111 24.2775 135.526 25.4566C135.941 26.6358 136.108 27.8878 136.018 29.1345ZM132.044 29.1345C132.044 25.8601 129.684 23.6198 126.941 23.6198C124.198 23.6198 121.843 25.8601 121.843 29.1345C121.843 32.4089 124.203 34.6493 126.941 34.6493C129.679 34.6493 132.044 32.3706 132.044 29.1345Z" clip-rule="evenodd"/><path fill="#80868B" fill-rule="evenodd" d="M154.711 36.7557V20.5847H150.92V22.0687H150.781C150.174 21.4086 149.433 20.8856 148.607 20.5347C147.782 20.1839 146.891 20.0132 145.994 20.0342C141.446 20.0342 137.482 24.065 137.482 29.168C137.482 34.2711 141.446 38.2349 145.994 38.2349C146.894 38.257 147.788 38.0835 148.615 37.7265C149.441 37.3694 150.18 36.8373 150.781 36.1668H150.92V37.3349C150.92 40.8152 149.058 42.6773 146.061 42.6773C143.61 42.6773 142.097 40.9205 141.475 39.4365L137.995 40.8726C138.653 42.4675 139.772 43.8298 141.209 44.7849C142.646 45.74 144.336 46.2447 146.061 46.2342C150.748 46.2342 154.711 43.4577 154.711 36.7557ZM146.377 23.6197C149.077 23.6197 151.193 25.9607 151.193 29.168C151.193 32.3371 149.11 34.6493 146.377 34.6493C143.643 34.6493 141.47 32.3706 141.47 29.168C141.47 25.9654 143.677 23.6197 146.377 23.6197Z" clip-rule="evenodd"/><path fill="#80868B" d="M161.303 10.9339V37.6844H157.325V10.9339H161.303Z"/><path fill="#80868B" fill-rule="evenodd" d="M179.609 34.1993L176.507 32.1313C175.473 33.6488 174.08 34.6493 172.026 34.6493C171.099 34.6857 170.182 34.4422 169.395 33.9504C168.608 33.4586 167.987 32.7414 167.613 31.8919L179.777 26.8654L179.365 25.8314C178.609 23.7969 176.263 20.0389 171.576 20.0389C166.89 20.0389 162.993 23.7203 162.993 29.1345C162.968 30.3306 163.184 31.5195 163.628 32.6303C164.072 33.7412 164.736 34.7511 165.579 35.6C166.422 36.4488 167.427 37.1192 168.535 37.5711C169.643 38.0229 170.83 38.2471 172.026 38.2301C173.525 38.2389 175.003 37.8752 176.327 37.1717C177.65 36.4681 178.778 35.4467 179.609 34.1993ZM175.095 25.4771L166.957 28.8569C166.916 28.1956 167.007 27.5328 167.226 26.9071C167.444 26.2814 167.784 25.7054 168.227 25.2127C168.67 24.7199 169.206 24.3202 169.805 24.0368C170.404 23.7535 171.053 23.5922 171.715 23.5623C173.3 23.5623 174.645 24.3378 175.095 25.4771Z" clip-rule="evenodd"/><path fill="#80868B" d="M204.756 37.6844H190.706V12.662H193.923V34.611H204.756V37.6844Z"/><path fill="#80868B" fill-rule="evenodd" d="M211.859 37.6224C212.932 38.0682 214.088 38.2802 215.249 38.2444C216.867 38.2695 218.459 37.8452 219.85 37.0189C221.217 36.2127 222.33 35.0383 223.062 33.6296L220.19 32.2318C219.022 34.2807 217.418 35.3099 215.364 35.3099C214.656 35.3191 213.952 35.1875 213.295 34.9229C212.638 34.6584 212.039 34.2659 211.535 33.7685C210.996 33.2417 210.57 32.6113 210.282 31.9152C209.994 31.2191 209.85 30.4718 209.859 29.7186H223.311L223.349 29.3691C223.311 26.4362 222.553 24.1415 221.075 22.4852C219.598 20.8288 217.582 20.0007 215.029 20.0007C213.89 19.9715 212.758 20.1912 211.712 20.6442C210.666 21.0973 209.732 21.7729 208.974 22.624C207.363 24.3965 206.504 26.7262 206.58 29.1202C206.498 31.5377 207.378 33.889 209.026 35.6594C209.82 36.5075 210.786 37.1767 211.859 37.6224ZM219.922 27.0617H210.103C210.328 25.8982 210.93 24.8414 211.817 24.0554C212.694 23.3117 213.812 22.9134 214.962 22.9352C216.237 22.8679 217.489 23.2949 218.457 24.1272C218.887 24.4913 219.239 24.9393 219.491 25.4438C219.743 25.9483 219.889 26.4988 219.922 27.0617Z" clip-rule="evenodd"/><path fill="#80868B" d="M226.289 20.5608H229.362V22.9543H229.501C230.045 22.066 230.819 21.3414 231.741 20.8576C232.711 20.3075 233.805 20.0127 234.92 20.0007C237.017 20.0007 238.623 20.607 239.741 21.8198C240.858 23.0325 241.429 24.7336 241.454 26.9229V37.6844H238.228V27.1527C238.161 24.357 236.752 22.9591 234.001 22.9591C233.38 22.9541 232.766 23.0938 232.209 23.3672C231.651 23.6406 231.165 24.0401 230.789 24.5341C229.919 25.5696 229.457 26.8874 229.491 28.2393V37.6844H226.279L226.289 20.5608Z"/><path fill="#80868B" d="M257.64 35.0519C257.981 34.3949 258.16 33.666 258.161 32.9259C258.165 30.3441 256.47 28.6351 253.077 27.7989L250.492 27.1335C248.654 26.7186 247.735 26.0197 247.735 25.0367C247.747 24.7193 247.841 24.4104 248.009 24.1408C248.177 23.8712 248.413 23.6503 248.692 23.5001C249.374 23.0809 250.161 22.8634 250.962 22.8729C251.814 22.8514 252.657 23.058 253.403 23.4713C254.115 23.832 254.682 24.4247 255.011 25.1516L257.884 23.9596C257.373 22.7364 256.462 21.7234 255.299 21.0873C254.061 20.3567 252.647 19.9808 251.21 20.0007C249.466 19.9286 247.747 20.4334 246.318 21.4368C245.722 21.8576 245.24 22.4192 244.915 23.0715C244.589 23.7239 244.43 24.4467 244.451 25.1756C244.451 27.5532 246.111 29.1585 249.43 29.9914L252.364 30.7239C254.043 31.2217 254.882 32.0196 254.882 33.1174C254.862 33.4486 254.755 33.7685 254.57 34.0444C254.386 34.3203 254.132 34.5423 253.834 34.6876C253.068 35.1565 252.18 35.3881 251.282 35.353C250.331 35.3544 249.403 35.0618 248.625 34.5153C247.81 33.9014 247.182 33.0725 246.811 32.1217L243.939 33.3472C244.483 34.7933 245.459 36.0368 246.734 36.9088C248.077 37.8062 249.663 38.2706 251.277 38.2397C253.047 38.3075 254.786 37.7649 256.203 36.703C256.807 36.275 257.3 35.7089 257.64 35.0519Z"/></g><g id="Group_2"><path id="Vector" fill="#FBBC05" d="M39.8823 9.78972C41.3612 9.79476 42.778 10.3845 43.8237 11.4302C44.8694 12.4759 45.4591 13.8927 45.4641 15.3715V19.8427H51.0507V15.3715C51.0513 13.9047 50.7629 12.4521 50.2019 11.0968C49.6408 9.74152 48.8182 8.51008 47.781 7.47287C46.7438 6.43566 45.5123 5.61303 44.157 5.05199C42.8017 4.49095 41.3492 4.2025 39.8823 4.20313H35.4111V9.78972H39.8823Z"/><path id="Vector_2" fill="#EA4335" d="M16.4252 15.3715C16.4303 13.8927 17.02 12.4759 18.0657 11.4302C19.1114 10.3845 20.5282 9.79476 22.007 9.78972H26.4782V4.20313H22.007C20.5402 4.2025 19.0876 4.49095 17.7323 5.05199C16.377 5.61303 15.1456 6.43566 14.1084 7.47287C13.0712 8.51008 12.2485 9.74152 11.6875 11.0968C11.1264 12.4521 10.838 13.9047 10.8386 15.3715V19.8427H16.4252V15.3715Z"/><path id="Vector_3" fill="#4285F4" d="M22.007 38.8285C20.5282 38.8235 19.1114 38.2338 18.0657 37.1881C17.02 36.1424 16.4303 34.7255 16.4252 33.2467V28.7755H10.8386V33.2467C10.838 34.7135 11.1264 36.1661 11.6875 37.5214C12.2485 38.8767 13.0712 40.1081 14.1084 41.1454C15.1456 42.1826 16.377 43.0052 17.7323 43.5662C19.0876 44.1273 20.5402 44.4157 22.007 44.4151H26.4782V38.8285H22.007Z"/><path id="Vector_4" fill="#34A853" d="M44.3485 42.1795C45.2319 42.1795 46.0954 41.9176 46.8299 41.4268C47.5644 40.936 48.1368 40.2384 48.4749 39.4223C48.8129 38.6062 48.9014 37.7082 48.7291 36.8418C48.5567 35.9754 48.1313 35.1795 47.5067 34.5549C46.8821 33.9302 46.0862 33.5049 45.2198 33.3325C44.3534 33.1602 43.4554 33.2486 42.6393 33.5867C41.8231 33.9247 41.1256 34.4972 40.6348 35.2317C40.144 35.9662 39.8821 36.8297 39.8821 37.7131C39.8821 38.2996 39.9976 38.8804 40.2221 39.4223C40.4465 39.9642 40.7755 40.4566 41.1903 40.8713C41.605 41.2861 42.0974 41.6151 42.6393 41.8395C43.1812 42.064 43.7619 42.1795 44.3485 42.1795V42.1795Z"/><path id="Vector_5" fill="#4285F4" d="M30.9446 32.1265C32.4907 32.1265 34.0021 31.6681 35.2877 30.8091C36.5733 29.9501 37.5753 28.7292 38.1669 27.3007C38.7586 25.8723 38.9134 24.3005 38.6118 22.784C38.3102 21.2676 37.5656 19.8747 36.4723 18.7814C35.3791 17.6881 33.9861 16.9436 32.4697 16.6419C30.9533 16.3403 29.3815 16.4951 27.953 17.0868C26.5246 17.6785 25.3037 18.6805 24.4447 19.966C23.5857 21.2516 23.1272 22.763 23.1272 24.3091C23.1272 26.3824 23.9508 28.3708 25.4169 29.8369C26.8829 31.3029 28.8713 32.1265 30.9446 32.1265Z"/></g></g></g></svg>

<svg xmlns="http://www.w3.org/2000/svg" fill="none" aria-hidden="true" viewBox="0 0 269 51"><path fill="#80868B" d="M69.242 24.099c0 7.793 6.548 14.136 14.361 14.136 4.184 0 7.353-1.379 9.828-3.935 2.556-2.552 3.351-6.161 3.351-9.033a12.34 12.34 0 0 0-.206-2.394H83.574v3.791h9.24c-.273 2.169-1 3.773-2.102 4.874-1.345 1.34-3.447 2.824-7.138 2.824a10.138 10.138 0 0 1-10.11-10.278 10.138 10.138 0 0 1 10.134-10.273 9.852 9.852 0 0 1 6.966 2.757l2.724-2.724a13.457 13.457 0 0 0-9.685-3.896c-7.813 0-14.361 6.357-14.361 14.15Z"/><path fill="#80868B" fill-rule="evenodd" d="M115.899 32.813a9.086 9.086 0 0 0 .491-3.678 9.086 9.086 0 0 0-2.411-6.854 9.092 9.092 0 0 0-10.293-2.144 9.092 9.092 0 0 0-5.439 8.998 9.097 9.097 0 0 0 17.652 3.677Zm-8.585-9.193c2.743 0 5.103 2.24 5.103 5.515 0 3.236-2.365 5.514-5.103 5.514-2.738 0-5.098-2.24-5.098-5.514 0-3.275 2.355-5.515 5.098-5.515Zm28.704 5.515a9.104 9.104 0 0 1-2.412 6.853 9.092 9.092 0 0 1-10.293 2.145 9.102 9.102 0 0 1-4.947-5.32 9.104 9.104 0 0 1-.492-3.678 9.104 9.104 0 0 1 2.411-6.854 9.102 9.102 0 0 1 6.661-2.901 9.093 9.093 0 0 1 8.58 6.077 9.104 9.104 0 0 1 .492 3.678Zm-3.974 0c0-3.275-2.36-5.515-5.103-5.515s-5.098 2.24-5.098 5.515c0 3.274 2.36 5.514 5.098 5.514s5.103-2.278 5.103-5.514Zm22.667 7.621V20.585h-3.791v1.484h-.139a6.298 6.298 0 0 0-4.787-2.035c-4.548 0-8.512 4.031-8.512 9.134 0 5.103 3.964 9.067 8.512 9.067a6.225 6.225 0 0 0 4.787-2.068h.139v1.168c0 3.48-1.862 5.342-4.859 5.342-2.451 0-3.964-1.757-4.586-3.24l-3.48 1.436a8.667 8.667 0 0 0 8.066 5.361c4.687 0 8.65-2.776 8.65-9.478Zm-8.334-13.136c2.7 0 4.816 2.34 4.816 5.548 0 3.17-2.083 5.481-4.816 5.481-2.734 0-4.907-2.278-4.907-5.48 0-3.204 2.207-5.55 4.907-5.55Z" clip-rule="evenodd"/><path fill="#80868B" d="M161.303 10.934v26.75h-3.978v-26.75h3.978Z"/><path fill="#80868B" fill-rule="evenodd" d="m179.609 34.2-3.102-2.069c-1.034 1.518-2.427 2.518-4.481 2.518a4.623 4.623 0 0 1-4.413-2.757l12.164-5.026-.412-1.035c-.756-2.034-3.102-5.792-7.789-5.792-4.686 0-8.583 3.681-8.583 9.096a8.917 8.917 0 0 0 2.586 6.465 8.905 8.905 0 0 0 6.447 2.63 9.051 9.051 0 0 0 7.583-4.03Zm-4.514-8.723-8.138 3.38a4.99 4.99 0 0 1 4.758-5.295c1.585 0 2.93.776 3.38 1.915Z" clip-rule="evenodd"/><path fill="#80868B" d="M204.756 37.684h-14.05V12.663h3.217v21.95h10.833v3.072Z"/><path fill="#80868B" fill-rule="evenodd" d="M211.859 37.623a8.181 8.181 0 0 0 3.39.622c1.618.025 3.21-.4 4.601-1.226a8.468 8.468 0 0 0 3.212-3.39l-2.872-1.397c-1.168 2.049-2.772 3.078-4.826 3.078a5.357 5.357 0 0 1-3.829-1.541 5.566 5.566 0 0 1-1.676-4.05h13.452l.038-.35c-.038-2.933-.796-5.227-2.274-6.884-1.477-1.656-3.493-2.484-6.046-2.484a7.841 7.841 0 0 0-6.055 2.623 9.224 9.224 0 0 0-2.394 6.496 9.143 9.143 0 0 0 2.446 6.54 8.179 8.179 0 0 0 2.833 1.963Zm8.063-10.561h-9.819a5.382 5.382 0 0 1 1.714-3.007 4.724 4.724 0 0 1 3.145-1.12 4.96 4.96 0 0 1 3.495 1.192 4.165 4.165 0 0 1 1.465 2.935Z" clip-rule="evenodd"/><path fill="#80868B" d="M226.289 20.56h3.073v2.394h.139a5.772 5.772 0 0 1 2.24-2.096A6.59 6.59 0 0 1 234.92 20c2.097 0 3.703.606 4.82 1.819 1.117 1.213 1.689 2.914 1.714 5.103v10.761h-3.226v-10.53c-.067-2.796-1.476-4.194-4.227-4.194a3.995 3.995 0 0 0-3.212 1.575 5.544 5.544 0 0 0-1.298 3.705v9.445h-3.212l.01-17.123Zm31.351 14.492c.341-.657.52-1.386.521-2.126.004-2.582-1.691-4.29-5.084-5.127l-2.585-.665c-1.838-.415-2.757-1.114-2.757-2.097a1.824 1.824 0 0 1 .957-1.537 4.239 4.239 0 0 1 2.27-.627 4.787 4.787 0 0 1 2.441.598 3.506 3.506 0 0 1 1.608 1.68l2.873-1.191a5.838 5.838 0 0 0-2.585-2.873 7.83 7.83 0 0 0-4.089-1.086 7.942 7.942 0 0 0-4.892 1.436 4.421 4.421 0 0 0-1.867 3.739c0 2.377 1.66 3.983 4.979 4.816l2.934.732c1.679.498 2.518 1.296 2.518 2.393a1.865 1.865 0 0 1-1.048 1.57 4.54 4.54 0 0 1-2.552.666 4.61 4.61 0 0 1-2.657-.838 5.499 5.499 0 0 1-1.814-2.393l-2.872 1.225a7.526 7.526 0 0 0 2.795 3.562 7.906 7.906 0 0 0 4.543 1.33 7.72 7.72 0 0 0 4.926-1.536 4.636 4.636 0 0 0 1.437-1.651Z"/><path fill="#FBBC05" d="M39.882 9.79a5.6 5.6 0 0 1 5.582 5.582v4.47h5.587v-4.47a11.165 11.165 0 0 0-11.169-11.17h-4.47V9.79h4.47Z"/><path fill="#EA4335" d="M16.425 15.371a5.601 5.601 0 0 1 5.582-5.581h4.471V4.203h-4.471a11.164 11.164 0 0 0-11.168 11.168v4.472h5.586V15.37Z"/><path fill="#4285F4" d="M22.007 38.828a5.6 5.6 0 0 1-5.582-5.581v-4.471H10.84v4.47a11.163 11.163 0 0 0 11.168 11.17h4.471v-5.587h-4.471Z"/><path fill="#34A853" d="M44.349 42.18a4.466 4.466 0 1 0 0-8.933 4.466 4.466 0 0 0 0 8.932Z"/><path fill="#4285F4" d="M30.945 32.127a7.817 7.817 0 1 0 0-15.635 7.817 7.817 0 0 0 0 15.634Z"/></svg>
